Adwaita++-Light/panel/16/gpm-hibernate.svg

<svg height="16" width="16" xmlns="http://www.w3.org/2000/svg">
  <path d="m1.018959 1.0002458c-1.34935137-.02591589-1.36324657 2.0055377-.0136671 1.9980605v10.9893337c-.0190453 1.345843 2.0007721 1.349204 1.9973421.01366h-.00391v-12.0312925c-.0163961-.5374187-.4520689-.9697076-.9937847-.9697617zm2.9794175.9990302v10.989333h1.0055046v1.272204c0 .726096.7263062.725857.7263062.725857h.273341.9996475v-1.998061h1.9992935v1.994159h1.9992947v-1.994159h1.999294v1.99611h.999647.273342s.726306.000239.726306-.725859v-1.270251h.300676c.387663 0 .698971-.306051.698971-.686833v-9.6156667c0-.3807824-.311308-.6868333-.698971-.6868333zm2.0051518 1.9980606h3.9985887c.838573-.0003496 1.304946.9691083.780974 1.6234241l-2.6982659 3.3717273h1.9172919c1.351845-.019111 1.351845 2.017167 0 1.998061h-3.9985887c-.8385731.000349-1.3049464-.969109-.7809744-1.6234247l2.698267-3.3717273h-1.9172926c-1.3518457.019102-1.3518457-2.0171671 0-1.9980604zm6.5055167 0h1.991484c.399153.0000851.637212.4446352.415869.77659l-1.476042 2.2205008h1.060173c.6759-.00949.6759 1.008559 0 .9990303h-1.991484c-.400037.0015-.639659-.4438991-.417822-.7765902l1.476042-2.2205007h-1.05822c-.675923.00955-.675923-1.0085836 0-.9990302z" fill="#444"/>
</svg>

<svg xmlns="http://www.w3.org/2000/svg" width="16" height="16" version="1.1">
 <defs>
  <style id="current-color-scheme" type="text/css">
   .ColorScheme-Text { color:#444444; } .ColorScheme-Highlight { color:#4285f4; }
  </style>
 </defs>
 <path style="fill:currentColor" class="ColorScheme-Text" d="M 1.018959,1.0002458 C -0.33039237,0.97432991 -0.34428757,3.0057835 1.0052919,2.9983063 V 13.98764 C 0.9862466,15.333483 3.006064,15.336844 3.002634,14.0013 H 2.998724 V 1.9700075 C 2.9823279,1.4325888 2.5466551,1.0002999 2.0049393,1.0002458 Z M 3.9983765,1.999276 v 10.989333 h 1.0055046 v 1.272204 c 0,0.726096 0.7263062,0.725857 0.7263062,0.725857 h 0.273341 0.9996475 v -1.998061 h 1.9992935 v 1.994159 h 1.9992947 v -1.994159 h 1.999294 v 1.99611 h 0.999647 0.273342 c 0,0 0.726306,2.39e-4 0.726306,-0.725859 v -1.270251 h 0.300676 C 15.688692,12.988609 16,12.682558 16,12.301776 V 2.6861093 C 16,2.3053269 15.688692,1.999276 15.301029,1.999276 Z m 2.0051518,1.9980606 h 3.9985887 c 0.838573,-3.496e-4 1.304946,0.9691083 0.780974,1.6234241 L 8.0848251,8.992488 h 1.9172919 c 1.351845,-0.019111 1.351845,2.017167 0,1.998061 H 6.0035283 C 5.1649552,10.990898 4.6985819,10.02144 5.2225539,9.3671243 L 7.9208209,5.995397 H 6.0035283 c -1.3518457,0.019102 -1.3518457,-2.0171671 0,-1.9980604 z m 6.5055167,0 h 1.991484 c 0.399153,8.51e-5 0.637212,0.4446352 0.415869,0.77659 l -1.476042,2.2205008 h 1.060173 c 0.6759,-0.00949 0.6759,1.008559 0,0.9990303 h -1.991484 c -0.400037,0.0015 -0.639659,-0.4438991 -0.417822,-0.7765902 l 1.476042,-2.2205007 h -1.05822 c -0.675923,0.00955 -0.675923,-1.0085836 0,-0.9990302 z"/>
</svg>
